src/images/Icons/01_balcony.svg

<?xml version="1.0" encoding="UTF-8"?>
<svg width="20px" height="20px" viewBox="0 0 20 20" version="1.1" xmlns="http://www.w3.org/2000/svg" xmlns:xlink="http://www.w3.org/1999/xlink">
    <!-- Generator: Sketch 51.3 (57544) - http://www.bohemiancoding.com/sketch -->
    <title>Group 4</title>
    <desc>Created with Sketch.</desc>
    <defs></defs>
    <g id="Welcome" stroke="none" stroke-width="1" fill="none" fill-rule="evenodd">
        <g id="CLanding" transform="translate(-1035.000000, -1782.000000)" fill="#000000">
            <g id="Rooms" transform="translate(0.000000, 1411.000000)">
                <g id="Group-15" transform="translate(810.000000, 204.000000)">
                    <g id="Group-12" transform="translate(0.000000, 76.000000)">
                        <g id="Group-14">
                            <g id="Group-4" transform="translate(225.000000, 91.000000)">
                                <path d="M15.4893617,16.0425532 L17.7021277,16.0425532 L17.7021277,9.95744681 L15.4893617,9.95744681 L15.4893617,16.0425532 Z M18.8243972,18.0707801 L1.10638298,18.0707801 L1.09049645,17.1489362 L1.10638298,17.1489362 L18.8085106,17.1489362 L18.8243972,18.0707801 Z M2.21276596,16.0425532 L4.42553191,16.0425532 L4.42553191,9.95744681 L2.21276596,9.95744681 L2.21276596,16.0425532 Z M5.53191489,1.10638298 L14.3829787,1.10638298 L14.3829787,8.85106383 L13.2765957,8.85106383 L13.2765957,2.21276596 L6.63829787,2.21276596 L6.63829787,8.85106383 L5.53191489,8.85106383 L5.53191489,1.10638298 Z M12.1702128,9.95744681 L13.2765957,9.95744681 L14.3829787,9.95744681 L14.3829787,16.0425532 L12.1702128,16.0425532 L12.1702128,9.95744681 Z M8.85106383,16.0425532 L11.0638298,16.0425532 L11.0638298,9.95744681 L8.85106383,9.95744681 L8.85106383,16.0425532 Z M12.1702128,8.85106383 L11.0638298,8.85106383 L8.85106383,8.85106383 L7.74468085,8.85106383 L7.74468085,3.31914894 L12.1702128,3.31914894 L12.1702128,8.85106383 Z M5.53191489,9.95744681 L6.63829787,9.95744681 L7.74468085,9.95744681 L7.74468085,16.0425532 L5.53191489,16.0425532 L5.53191489,9.95744681 Z M19.9148936,9.95744681 L19.9148936,8.85106383 L15.4893617,8.85106383 L15.4893617,0.553191489 C15.4893617,0.247659574 15.2417021,0 14.9361702,0 L4.9787234,0 C4.67319149,0 4.42553191,0.247659574 4.42553191,0.553191489 L4.42553191,8.85106383 L0,8.85106383 L0,9.95744681 L1.10638298,9.95744681 L1.10638298,16.0425532 L1.09049645,16.0425532 C0.489219858,16.0425532 0,16.5387234 0,17.1489362 L0,18.0707801 C0,18.6809929 0.489219858,19.1771631 1.09049645,19.1771631 L18.8243972,19.1771631 C19.4256738,19.1771631 19.9148936,18.6809929 19.9148936,18.0707801 L19.9148936,17.1489362 C19.9148936,16.5387234 19.4256738,16.0425532 18.8243972,16.0425532 L18.8085106,16.0425532 L18.8085106,9.95744681 L19.9148936,9.95744681 Z" id="Fill-1"></path>
                                <polygon id="Fill-3" points="8.29787234 7.74468085 9.40425532 7.74468085 9.40425532 5.53191489 8.29787234 5.53191489"></polygon>
                            </g>
                        </g>
                    </g>
                </g>
            </g>
        </g>
    </g>
</svg>

<svg width="20" height="20" viewBox="0 0 20 20" xmlns="http://www.w3.org/2000/svg"><g fill-rule="evenodd"><path d="M15.49 16.043h2.212V9.957H15.49v6.086zm3.334 2.028H1.106l-.016-.922h17.72l.015.922zM2.213 16.043h2.213V9.957H2.213v6.086zM5.532 1.106h8.851v7.745h-1.106V2.213H6.638V8.85H5.532V1.106zm6.638 8.851h2.213v6.086H12.17V9.957zm-3.319 6.086h2.213V9.957H8.85v6.086zm3.32-7.192H7.744V3.32h4.425v5.532zM5.53 9.957h2.214v6.086H5.532V9.957zm14.384 0V8.851h-4.426V.553A.553.553 0 0014.936 0H4.98a.553.553 0 00-.553.553v8.298H0v1.106h1.106v6.086H1.09A1.1 1.1 0 000 17.149v.922a1.1 1.1 0 001.09 1.106h17.734a1.1 1.1 0 001.09-1.106v-.922a1.1 1.1 0 00-1.09-1.106h-.015V9.957h1.106z"/><path d="M8.298 7.745h1.106V5.532H8.298z"/></g></svg>
